src/assets/terrain/vegetation-shrub.svg

<?xml version="1.0" encoding="UTF-8"?>
<svg width="28px" height="28px" viewBox="0 0 28 28" version="1.1" xmlns="http://www.w3.org/2000/svg" xmlns:xlink="http://www.w3.org/1999/xlink">
    <title>5CC4FCD9-BB9E-4967-8ACD-2A06BD7E019B</title>
    <g id="Shrub-ICON" stroke="none" fill="none">
        <g id="Shrub-Icon" stroke-width="1" fill-rule="evenodd">
            <polygon id="Back" fill="#FFFFFF" points="0 28 28 28 28 0 0 0"></polygon>
            <path d="M24.0003,13.9996 L24.0003,15.0006 L23.0003,15.0006 L23.0003,16.0006 L24.0003,16.0006 L24.0003,15.0006 L25.0003,15.0006 L25.0003,13.9996 L24.0003,13.9996 Z M21.9993,15.0006 L23.0003,15.0006 L23.0003,13.9996 L21.9993,13.9996 L21.9993,15.0006 Z M3.9993,13.9996 L3.9993,15.0006 L2.9993,15.0006 L2.9993,16.0006 L3.9993,16.0006 L3.9993,15.0006 L5.0003,15.0006 L5.0003,13.9996 L3.9993,13.9996 Z M0.0003,15.0006 L1.0003,15.0006 L1.0003,13.9996 L0.0003,13.9996 L0.0003,15.0006 Z M27.0003,15.0006 L27.0003,16.0006 L26.0003,16.0006 L26.0003,17.0006 L27.0003,17.0006 L27.0003,16.0006 L28.0003,16.0006 L28.0003,15.0006 L27.0003,15.0006 Z M25.0003,16.0006 L26.0003,16.0006 L26.0003,15.0006 L25.0003,15.0006 L25.0003,16.0006 Z M9.0003,16.0006 L10.0003,16.0006 L10.0003,15.0006 L9.0003,15.0006 L9.0003,16.0006 Z M5.0003,16.0006 L6.0003,16.0006 L6.0003,15.0006 L5.0003,15.0006 L5.0003,16.0006 Z M1.0003,15.0006 L1.0003,16.0006 L0.0003,16.0006 L0.0003,17.0006 L1.0003,17.0006 L1.0003,16.0006 L1.9993,16.0006 L1.9993,15.0006 L1.0003,15.0006 Z M24.0003,16.0006 L24.0003,17.0006 L23.0003,17.0006 L23.0003,18.0006 L21.9993,18.0006 L21.9993,18.9996 L23.0003,18.9996 L23.0003,18.0006 L24.0003,18.0006 L24.0003,17.0006 L25.0003,17.0006 L25.0003,16.0006 L24.0003,16.0006 Z M21.9993,17.0006 L23.0003,17.0006 L23.0003,16.0006 L21.9993,16.0006 L21.9993,17.0006 Z M8.0003,17.0006 L9.0003,17.0006 L9.0003,16.0006 L8.0003,16.0006 L8.0003,17.0006 Z M6.0003,17.0006 L7.0003,17.0006 L7.0003,16.0006 L6.0003,16.0006 L6.0003,17.0006 Z M3.9993,16.0006 L3.9993,17.0006 L2.9993,17.0006 L2.9993,18.0006 L1.9993,18.0006 L1.9993,18.9996 L1.0003,18.9996 L1.0003,19.9996 L0.0003,19.9996 L0.0003,20.9996 L1.0003,20.9996 L1.0003,19.9996 L1.9993,19.9996 L1.9993,18.9996 L2.9993,18.9996 L2.9993,18.0006 L3.9993,18.0006 L3.9993,17.0006 L5.0003,17.0006 L5.0003,16.0006 L3.9993,16.0006 Z M27.0003,17.0006 L27.0003,18.0006 L26.0003,18.0006 L26.0003,18.9996 L25.0003,18.9996 L25.0003,19.9996 L26.0003,19.9996 L26.0003,20.9996 L27.0003,20.9996 L27.0003,19.9996 L28.0003,19.9996 L28.0003,18.9996 L27.0003,18.9996 L27.0003,18.0006 L28.0003,18.0006 L28.0003,17.0006 L27.0003,17.0006 Z M19.0003,18.0006 L20.0003,18.0006 L20.0003,17.0006 L19.0003,17.0006 L19.0003,18.0006 Z M12.9993,17.0006 L12.9993,18.0006 L11.9993,18.0006 L11.9993,18.9996 L10.9993,18.9996 L10.9993,19.9996 L11.9993,19.9996 L11.9993,18.9996 L12.9993,18.9996 L12.9993,18.0006 L14.0003,18.0006 L14.0003,17.0006 L12.9993,17.0006 Z M9.0003,18.0006 L10.0003,18.0006 L10.0003,17.0006 L9.0003,17.0006 L9.0003,18.0006 Z M5.0003,17.0006 L5.0003,18.0006 L3.9993,18.0006 L3.9993,18.9996 L5.0003,18.9996 L5.0003,18.0006 L6.0003,18.0006 L6.0003,17.0006 L5.0003,17.0006 Z M1.0003,18.0006 L2.0003,18.0006 L2.0003,17.0006 L1.0003,17.0006 L1.0003,18.0006 Z M24.0003,18.9996 L25.0003,18.9996 L25.0003,17.9996 L24.0003,17.9996 L24.0003,18.9996 Z M19.9993,18.0006 L19.9993,18.9996 L19.0003,18.9996 L19.0003,19.9996 L18.0003,19.9996 L18.0003,20.9996 L19.0003,20.9996 L19.0003,19.9996 L19.9993,19.9996 L19.9993,18.9996 L20.9993,18.9996 L20.9993,18.0006 L19.9993,18.0006 Z M10.0003,18.9996 L11.0003,18.9996 L11.0003,17.9996 L10.0003,17.9996 L10.0003,18.9996 Z M8.0003,18.9996 L9.0003,18.9996 L9.0003,17.9996 L8.0003,17.9996 L8.0003,18.9996 Z M6.0003,18.0006 L6.0003,18.9996 L5.0003,18.9996 L5.0003,19.9996 L6.0003,19.9996 L6.0003,18.9996 L7.0003,18.9996 L7.0003,18.0006 L6.0003,18.0006 Z M23.0003,19.9996 L24.0003,19.9996 L24.0003,18.9996 L23.0003,18.9996 L23.0003,19.9996 Z M20.9993,18.9996 L20.9993,19.9996 L19.9993,19.9996 L19.9993,20.9996 L20.9993,20.9996 L20.9993,19.9996 L21.9993,19.9996 L21.9993,18.9996 L20.9993,18.9996 Z M17.0003,19.9996 L18.0003,19.9996 L18.0003,18.9996 L17.0003,18.9996 L17.0003,19.9996 Z M12.9993,19.9996 L14.0003,19.9996 L14.0003,18.9996 L12.9993,18.9996 L12.9993,19.9996 Z M7.0003,18.9996 L7.0003,19.9996 L6.0003,19.9996 L6.0003,20.9996 L7.0003,20.9996 L7.0003,19.9996 L8.0003,19.9996 L8.0003,18.9996 L7.0003,18.9996 Z M24.0003,20.9996 L25.0003,20.9996 L25.0003,19.9996 L24.0003,19.9996 L24.0003,20.9996 Z M21.9993,19.9996 L21.9993,20.9996 L20.9993,20.9996 L20.9993,21.9996 L21.9993,21.9996 L21.9993,20.9996 L23.0003,20.9996 L23.0003,19.9996 L21.9993,19.9996 Z M11.9993,20.9996 L12.9993,20.9996 L12.9993,19.9996 L11.9993,19.9996 L11.9993,20.9996 Z M10.0003,20.9996 L11.0003,20.9996 L11.0003,19.9996 L10.0003,19.9996 L10.0003,20.9996 Z M8.0003,20.9996 L9.0003,20.9996 L9.0003,19.9996 L8.0003,19.9996 L8.0003,20.9996 Z M3.9993,19.9996 L3.9993,20.9996 L2.9993,20.9996 L2.9993,21.9996 L1.9993,21.9996 L1.9993,22.9996 L1.0003,22.9996 L1.0003,24.0006 L1.9993,24.0006 L1.9993,25.0006 L1.0003,25.0006 L1.0003,26.0006 L0.0003,26.0006 L0.0003,27.0006 L0.0003,27.9996 L1.9993,27.9996 L2.9993,27.9996 L2.9993,27.0006 L2.9993,26.0006 L3.9993,26.0006 L3.9993,27.9996 L5.0003,27.9996 L7.0003,27.9996 L8.0003,27.9996 L8.0003,27.0006 L9.0003,27.0006 L9.0003,26.0006 L10.0003,26.0006 L10.0003,27.0006 L9.0003,27.0006 L9.0003,27.9996 L10.0003,27.9996 L10.9993,27.9996 L12.9993,27.9996 L12.9993,27.0006 L14.0003,27.0006 L14.0003,27.9996 L15.0003,27.9996 L17.0003,27.9996 L17.0003,27.0006 L17.0003,26.0006 L18.0003,26.0006 L18.0003,27.0006 L18.0003,27.9996 L19.0003,27.9996 L19.9993,27.9996 L19.9993,27.0006 L19.0003,27.0006 L19.0003,26.0006 L19.9993,26.0006 L19.9993,25.0006 L19.0003,25.0006 L19.0003,24.0006 L18.0003,24.0006 L18.0003,25.0006 L17.0003,25.0006 L17.0003,26.0006 L16.0003,26.0006 L16.0003,27.0006 L15.0003,27.0006 L15.0003,26.0006 L14.0003,26.0006 L14.0003,25.0006 L12.9993,25.0006 L12.9993,26.0006 L11.9993,26.0006 L11.9993,27.0006 L10.9993,27.0006 L10.9993,26.0006 L11.9993,26.0006 L11.9993,25.0006 L10.9993,25.0006 L10.9993,24.0006 L10.0003,24.0006 L10.0003,25.0006 L9.0003,25.0006 L9.0003,26.0006 L8.0003,26.0006 L8.0003,25.0006 L9.0003,25.0006 L9.0003,24.0006 L8.0003,24.0006 L8.0003,22.9996 L9.0003,22.9996 L9.0003,21.9996 L8.0003,21.9996 L8.0003,22.9996 L7.0003,22.9996 L7.0003,24.0006 L6.0003,24.0006 L6.0003,25.0006 L5.0003,25.0006 L5.0003,24.0006 L6.0003,24.0006 L6.0003,22.9996 L5.0003,22.9996 L5.0003,24.0006 L3.9993,24.0006 L3.9993,25.0006 L2.9993,25.0006 L2.9993,24.0006 L3.9993,24.0006 L3.9993,22.9996 L5.0003,22.9996 L5.0003,21.9996 L6.0003,21.9996 L6.0003,20.9996 L5.0003,20.9996 L5.0003,19.9996 L3.9993,19.9996 Z M2.9993,22.9996 L3.9993,22.9996 L3.9993,21.9996 L2.9993,21.9996 L2.9993,22.9996 Z M7.0003,25.0006 L7.0003,26.0006 L6.0003,26.0006 L6.0003,27.0006 L5.0003,27.0006 L5.0003,26.0006 L6.0003,26.0006 L6.0003,25.0006 L7.0003,25.0006 Z M0.9993,27.0006 L1.9993,27.0006 L1.9993,26.0006 L0.9993,26.0006 L0.9993,27.0006 Z M1.9993,20.9996 L2.9993,20.9996 L2.9993,19.9996 L1.9993,19.9996 L1.9993,20.9996 Z M27.0003,20.9996 L27.0003,21.9996 L26.0003,21.9996 L26.0003,22.9996 L27.0003,22.9996 L27.0003,21.9996 L28.0003,21.9996 L28.0003,20.9996 L27.0003,20.9996 Z M25.0003,21.9996 L26.0003,21.9996 L26.0003,20.9996 L25.0003,20.9996 L25.0003,21.9996 Z M23.0003,21.9996 L24.0003,21.9996 L24.0003,20.9996 L23.0003,20.9996 L23.0003,21.9996 Z M9.0003,21.9996 L10.0003,21.9996 L10.0003,20.9996 L9.0003,20.9996 L9.0003,21.9996 Z M7.0003,21.9996 L8.0003,21.9996 L8.0003,20.9996 L7.0003,20.9996 L7.0003,21.9996 Z M1.0003,20.9996 L1.0003,21.9996 L0.0003,21.9996 L0.0003,22.9996 L1.0003,22.9996 L1.0003,21.9996 L1.9993,21.9996 L1.9993,20.9996 L1.0003,20.9996 Z M24.0003,21.9996 L24.0003,22.9996 L23.0003,22.9996 L23.0003,24.0006 L24.0003,24.0006 L24.0003,25.0006 L23.0003,25.0006 L23.0003,24.0006 L21.9993,24.0006 L21.9993,25.0006 L20.9993,25.0006 L20.9993,26.0006 L21.9993,26.0006 L21.9993,27.0006 L20.9993,27.0006 L20.9993,27.9996 L21.9993,27.9996 L23.0003,27.9996 L24.0003,27.9996 L25.0003,27.9996 L27.0003,27.9996 L28.0003,27.9996 L28.0003,22.9996 L27.0003,22.9996 L27.0003,24.0006 L26.0003,24.0006 L26.0003,25.0006 L27.0003,25.0006 L27.0003,26.0006 L26.0003,26.0006 L26.0003,27.0006 L25.0003,27.0006 L25.0003,26.0006 L26.0003,26.0006 L26.0003,25.0006 L25.0003,25.0006 L25.0003,24.0006 L26.0003,24.0006 L26.0003,22.9996 L25.0003,22.9996 L25.0003,21.9996 L24.0003,21.9996 Z M23.0003,27.0006 L24.0003,27.0006 L24.0003,26.0006 L23.0003,26.0006 L23.0003,27.0006 Z M18.0003,22.9996 L19.0003,22.9996 L19.0003,21.9996 L18.0003,21.9996 L18.0003,22.9996 Z M10.0003,22.9996 L11.0003,22.9996 L11.0003,21.9996 L10.0003,21.9996 L10.0003,22.9996 Z M19.0003,24.0006 L20.0003,24.0006 L20.0003,22.9996 L19.0003,22.9996 L19.0003,24.0006 Z M15.0003,24.0006 L16.0003,24.0006 L16.0003,22.9996 L15.0003,22.9996 L15.0003,24.0006 Z M12.9993,22.9996 L12.9993,24.0006 L11.9993,24.0006 L11.9993,25.0006 L12.9993,25.0006 L12.9993,24.0006 L14.0003,24.0006 L14.0003,22.9996 L12.9993,22.9996 Z M19.9993,25.0006 L20.9993,25.0006 L20.9993,24.0006 L19.9993,24.0006 L19.9993,25.0006 Z M16.0003,25.0006 L17.0003,25.0006 L17.0003,24.0006 L16.0003,24.0006 L16.0003,25.0006 Z M0.0003,25.0006 L1.0003,25.0006 L1.0003,24.0006 L0.0003,24.0006 L0.0003,25.0006 Z M15.0003,26.0006 L16.0003,26.0006 L16.0003,25.0006 L15.0003,25.0006 L15.0003,26.0006 Z M19.9993,27.0006 L20.9993,27.0006 L20.9993,26.0006 L19.9993,26.0006 L19.9993,27.0006 Z" id="Icon" fill="#797979"></path>
        </g>
        <rect id="Dark-Outline" class="dark-outline" stroke="#797979" stroke-width="1.5" fill-rule="nonzero" x="0.75" y="0.75" width="26.5" height="26.5"></rect>
        <rect id="White-Outline" stroke="#FFFFFF" stroke-width="1.5" fill-rule="nonzero" x="0.75" y="0.75" width="26.5" height="26.5"></rect>
    </g>
</svg>

<svg id="shrub" xmlns="http://www.w3.org/2000/svg" viewBox="0 0 28 28"><title>Vegetation Shrub</title><g id="shrub_back" data-name="shrub back"><rect width="28" height="28" style="fill:#fff"/></g><path d="M1,24v1H0V24Zm25-1h1V22H26Zm1,1V23h1v5H21V27h1V26H21V25h1V24h1v1h1V24H23V23h1V22h1v1h1v1H25v1h1v1H25v1h1V26h1V25H26V24Zm-3,3V26H23v1ZM0,22v1H1V22Zm0-2v1H1V20Zm26-4v1h1V16ZM0,14v1H1V14Zm26,5H25v1h1v1h1V20h1V19H27V18H26ZM0,16v1H1V16Zm9,5V20H8v1ZM7,22H8V21H7Zm21-4V17H27v1ZM7,21V20H6v1ZM4,18v1H5V18ZM3,20H2v1H3Zm25,2V21H27v1Zm-8,4v1h1V26ZM6,19H5v1H6ZM3,15v1H4V15Zm9,5V19H11v1ZM7,17V16H6v1ZM5,14H4v1H5Zm9,6V19H13v1Zm-2,1h1V20H12Zm-2-6H9v1h1Zm3,3H12v1h1Zm-3-1H9v1h1Zm4,0H13v1h1Zm-1,7H12v1h1Zm2-1v1h1V23Zm2,1H16v1h1ZM8,16v1H9V16ZM2,15H1v1H2ZM16,25H15v1h1ZM28,15H27v1h1ZM14,23H13v1h1Zm-3,0V22H10v1ZM1,17v1H2V17Zm22,1H22v1h1Zm-5,3h1V20H18Zm3,1h1V21H21Zm-1,1H19v1h1Zm-3-4v1h1V19Zm2,0v1h1V19Zm-1,3v1h1V22Zm1-5v1h1V17ZM8,26V25H9V24H8V23H7v1H6v1H7v1H6v1H5V26H6V25H5V24H4v1H3V24H4V23H3V22H2v1H1v1H2v1H1v1H2v1H1V26H0v2H3V26H4v2H8V27H9V26Zm8,1H15V26H14V25H13v1H12v1H11V26h1V25H11V24H10v1H9v1h1v1H9v1h4V27h1v1h3V26H16Zm9-8V18H24v1Zm-4-1H20v1h1ZM5,22H6V21H5V20H4v1H3v1H4v1H5Zm19-7H23v1h1Zm-1,4v1h1V19Zm1-2H23v1h1Zm0,4h1V20H24Zm2-5V15H25v1Zm-4-2v1h1V14Zm3,8h1V21H25Zm-3-6v1h1V16Zm3-2H24v1h1Zm-1,3h1V16H24ZM9,18H8v1H9Zm14,3v1h1V21ZM8,20V19H7v1ZM7,19V18H6v1Zm3,2h1V20H10Zm1-2V18H10v1ZM9,22h1V21H9ZM5,23v1H6V23Zm16,2V24H20v1ZM8,23H9V22H8ZM6,16V15H5v1ZM5,18H6V17H5ZM2,19H1v1H2Zm1-1H2v1H3ZM2,21H1v1H2Zm18-1v1h1V20ZM4,17H3v1H4Zm18,3V19H21v1Zm0,0v1h1V20ZM5,16H4v1H5ZM19,26h1V25H19V24H18v1H17v1h1v2h2V27H19Z" style="fill:#797979"/></svg>
